!!!OTL: ZU PRESSBURG STELL ICHS MEIN UNGLUECK
!!!ARE: Europa, Mitteleuropa, Deutschland
!!!SCT: E1396
!!!YEM: Copyright 1995, estate of Helmut Schaffrath.
**kern
*ICvox
*Ivox
*M2/4
*k[b-e-]
*B-:
{8f
=1
4b-
8a
8b-
=2
4cc
8b-}
{8cc
=3
8dd
8dd
8cc
8dd
=4
8ee-
8dd
16cc
16r}
{8dd
=5
8dd
8dd
8cc
8dd
=6
4ee-
8r}
{8dd
=7
8cc
8cc
8b-
8cc
=8
4dd
8r}
{8cc
=9
8dd
8dd
8cc
8cc
=10
4b-
8r}
==
!!!AGN: Staende -, Soldaten - Lied, Deserteur
!!!ONB: ESAC (Essen Associative Code) Database: ERK3
!!!AMT: simple duple
!!!AIN: vox
!!!EED: Helmut Schaffrath
!!!EEV: 1.0
*-
